X: 1
T: The Ladies From Hell
R: polka
M: 2/4
L: 1/8
K: Amix
||:BG G/4G3/4g/2f/2|gG de/2d/2|BA Bd|e2 ef/4g3/4|
a3/2e/2 ga|g/4f3/4e/2d/2 ef/2g/2|BB/4A3/4 B/4G3/4B/4d3/4|e2 e/4g3/4e/4d3/4:||
Be e/2f/2e/2d/2|Be eg/2e/2|BA Bd|e2 e>g|
a>e ga|g/2f/2e/2d/2 ef/2g/2|BB/2<A/2 B/2<G/2B/2<d/2|e2 e2|
Be e/2f/2e/2d/2|Be eg/2e/2|d/2<B/2B/2<A/2 B/2<G/2B/2<d/2|e2 ef/2<g/2
a/2g/2f/2e/2 g/2f/2e/2d/2|e/2f/2g/2e/2 a>d|Be/2f/2 g/2e/2f/2d/2|e2 eg/2e/2|
||:GB B/2e/2d/2c/2|BG Gg/2e/2|GB/2<A/2 B/2<G/2B/2<d/2|e2 ef/2g/2
a/2g/2f/2e/2 g/2f/2e/2d/2|e/2f/2g/2e/2 a>d|Be/2f/2 g/2e/2f/2d/2|e2 e/2<g/2e/2<d/2:||
